X: 459
T: Bulutlar Kokunu
C: Sadettin Kaynak
O: Turkey
F: http://compmusic.upf.edu/node/140
N: acemasiran--sarki--duyek--bulutlar_kokunu--sadettin_kaynak
N: makam= acemasiran
N: form= sarki
N: usul= duyek = 8/4
M: 8/4
L: 1/16
K: C _B   
Q: 1/4=120
%%MIDI tuningsystem comma53
f8 f2 ef e2 c2  | e12 z4  | e8 e2 de d2 c2  | \
w:   |   |   | 
d12 z4  | c8 B4 A4  | B8 A4 G4  | 
w:   |   |   | 
A4 F4 G4 E4  | F12 z4  | e2 f6 e2 d2 c2 d2  | \
w:   |   |   | 
e12 z4  | z4 c2 d2 c2 B2 B2 A2  | 
w:   |   | 
A12 z4  | f8 a8  | g4 f4 e4 d4  | z2 c4 c2 d4 e4  | \
w:   |   |   |   | 
f12 z4  | z2 e4 f2 g4 z4  | z2 f2 e2 d2 a4 z4  | 
w:   |   |   | 
g4 f4 e4 d4  | d2 c6 c4 z4  | A2 B6 d4 z4  | \
w:   |   |   | 
z2 c4 d2 c2 B2 A4  | z2 A4 G2 F4 E4  | 
w:   |   | 
F12 z4  | e2 f6 e2 d2 c2 d2  | e12 z4  | \
w:   |   |   | 
z4 c2 d2 c2 B2 B2 A2  | A12 z4  | f8 a8  | 
w:   |   |   | 
g4 f4 e4 d4  | z2 c4 c2 d4 e4  | f12 z4  | \
w:   |   |   | 
z2 e4 f2 g4 z4  | z2 f2 e2 d2 a4 z4  | 
w:   |   | 
g4 f4 e4 d4  | d2 c6 c4 z4  | A2 B6 d4 z4  | \
w:   |   |   | 
z2 c4 d2 c2 B2 A4  | z2 A4 G2 F4 E4  | 
w:   |   | 
F12 z4  | z2 A4 _1/4B2 c4 B4  | c2 _7/8d2 c2 _1/4B2 A4 z4  | \
w:   |   |   | 
e4 _7/8d4 c4 _1/4B4  | c6 G2 A2 _1/4B2 c4  | 
w:   |   | 
f8 f2 ef e2 c2  | e12 z4  | e8 e2 de d2 c2  | \
w:   |   |   | 
d12 z4  | c8 B4 A4  | B8 A4 G4  | 
w:   |   |   | 
A4 F4 G4 E4  | F12 z4  | e2 f6 e2 d2 c2 d2  | \
w:   |   |   | 
e12 z4  | z4 c2 d2 c2 B2 B2 A2  | 
w:   |   | 
A12 z4  | f8 a8  | g4 f4 e4 d4  | z2 c4 c2 d4 e4  | \
w:   |   |   |   | 
f12 z4  | z2 e4 f2 g4 z4  | z2 f2 e2 d2 a4 z4  | 
w:   |   |   | 
g4 f4 e4 d4  | d2 c6 c4 z4  | A2 B6 d4 z4  | \
w:   |   |   | 
z2 c4 d2 c2 B2 A4  | z2 A4 G2 F4 E4  | 
w:   |   | 
F12 z4  | z2 A4 _1/4B2 c4 B4  | c2 _7/8d2 c2 _1/4B2 A4 z4  | \
w:   |   |   | 
e4 _7/8d4 c4 _1/4B4  | c6 c2 d2 e2 f4  | 
w:   |   | 
f8 a8  | g4 f4 e4 d4  | z2 c4 c2 d4 e4  | \
w:   |   |   | 
f12 z4  | z2 A6 d8  | z2 c4 d2 c2 B2 A4  | 
w:   |   |   | 
z2 A4 G2 F4 E4  | F12 z4  | |


